src/assets/ENSFull.svg

<svg viewBox="0 0 54 24" fill="none" xmlns="http://www.w3.org/2000/svg">
<path d="M33.6054 17.2868V15.4398H29.0623V13.1096H33.1748V11.362H29.0623V9.0602H33.6054V7.21315H27.0134V17.2868H33.6054Z" fill="url(#paint0_linear_2281_2524)"/>
<path d="M43.945 17.2868V7.21315H41.8961V13.8769L37.5163 7.21315H34.9627V17.2868H37.0115V10.14L41.7922 17.2868H43.945Z" fill="url(#paint1_linear_2281_2524)"/>
<path d="M52.8649 9.61435C52.6274 8.47765 51.6474 7 49.0939 7C47.1044 7 45.4268 8.364 45.4268 10.1543C45.4268 11.6746 46.5106 12.7118 48.1882 13.0386L49.6579 13.3228C50.4744 13.4791 50.9349 13.9337 50.9349 14.5162C50.9349 15.2266 50.3259 15.7523 49.2274 15.7523C47.7428 15.7523 47.0154 14.8572 46.9263 13.8626L45.0259 14.3457C45.1892 15.7808 46.4215 17.5 49.2124 17.5C51.6624 17.5 53.0134 15.9371 53.0134 14.3883C53.0134 12.9675 51.9889 11.774 50.0739 11.4188L48.6039 11.1489C47.8319 11.0068 47.4608 10.5663 47.4608 10.0122C47.4608 9.3444 48.114 8.7334 49.1089 8.7334C50.4449 8.7334 50.9199 9.60015 51.0239 10.1543L52.8649 9.61435Z" fill="url(#paint2_linear_2281_2524)"/>
<path d="M2.80905 5.66275C3.03339 5.24475 3.35717 4.88836 3.75182 4.62507L10.375 0L3.58875 11.2218C3.58875 11.2218 2.99581 10.2197 2.76456 9.71265C2.47639 9.07515 2.33106 8.38235 2.33874 7.6828C2.34643 6.9832 2.50695 6.2938 2.80905 5.66275ZM0.0755828 13.4038C0.150363 14.4769 0.453553 15.5217 0.964848 16.4681C1.47615 17.4146 2.18375 18.2409 3.04028 18.8916L10.3661 24C10.3661 24 5.78263 17.3944 1.91666 10.8215C1.52527 10.127 1.26215 9.3678 1.13991 8.5801C1.08579 8.2234 1.08579 7.8606 1.13991 7.5039C1.03911 7.6907 0.843438 8.07315 0.843438 8.07315C0.451443 8.87265 0.184478 9.72755 0.0518628 10.6081C-0.0244662 11.5388 -0.0165282 12.4745 0.0755828 13.4038ZM18.7532 14.2933C18.516 13.7863 17.929 12.7842 17.929 12.7842L11.1547 24L17.7778 19.3779C18.1725 19.1146 18.4962 18.7583 18.7206 18.3402C19.0227 17.7092 19.1832 17.0197 19.1909 16.3202C19.1986 15.6206 19.0532 14.9278 18.7651 14.2903L18.7532 14.2933ZM21.4422 10.5991C21.3674 9.526 21.0642 8.48125 20.5529 7.5348C20.0416 6.58835 19.334 5.7621 18.4775 5.1113L11.1636 0C11.1636 0 15.744 6.60555 19.613 13.1785C20.0033 13.8732 20.2654 14.6323 20.3867 15.4199C20.4409 15.7766 20.4409 16.1394 20.3867 16.4961C20.4875 16.3093 20.6832 15.9269 20.6832 15.9269C21.0752 15.1274 21.3422 14.2724 21.4748 13.3919C21.5521 12.4613 21.5452 11.5256 21.454 10.5962L21.4422 10.5991Z" fill="url(#paint3_linear_2281_2524)"/>
<defs>
<linearGradient id="paint0_linear_2281_2524" x1="35.3114" y1="26.8444" x2="22.209" y2="-24.0969" gradientUnits="userSpaceOnUse">
<stop stop-color="#44BCF0"/>
<stop offset="0.378795" stop-color="#7298F8"/>
<stop offset="1" stop-color="#A099FF"/>
</linearGradient>
<linearGradient id="paint1_linear_2281_2524" x1="35.3114" y1="26.8444" x2="22.209" y2="-24.0969" gradientUnits="userSpaceOnUse">
<stop stop-color="#44BCF0"/>
<stop offset="0.378795" stop-color="#7298F8"/>
<stop offset="1" stop-color="#A099FF"/>
</linearGradient>
<linearGradient id="paint2_linear_2281_2524" x1="35.3114" y1="26.8444" x2="22.209" y2="-24.0969" gradientUnits="userSpaceOnUse">
<stop stop-color="#44BCF0"/>
<stop offset="0.378795" stop-color="#7298F8"/>
<stop offset="1" stop-color="#A099FF"/>
</linearGradient>
<linearGradient id="paint3_linear_2281_2524" x1="35.3114" y1="26.8444" x2="22.209" y2="-24.0969" gradientUnits="userSpaceOnUse">
<stop stop-color="#44BCF0"/>
<stop offset="0.378795" stop-color="#7298F8"/>
<stop offset="1" stop-color="#A099FF"/>
</linearGradient>
</defs>
</svg>

<svg xmlns="http://www.w3.org/2000/svg" fill="none" viewBox="0 0 54 24"><path fill="url(#a)" d="M33.605 17.287V15.44h-4.543v-2.33h4.113v-1.748h-4.113V9.06h4.543V7.213h-6.592v10.074z"/><path fill="url(#b)" d="M43.945 17.287V7.213h-2.049v6.664l-4.38-6.664h-2.553v10.074h2.048V10.14l4.781 7.147z"/><path fill="url(#c)" d="M52.865 9.614C52.627 8.478 51.647 7 49.094 7c-1.99 0-3.667 1.364-3.667 3.154 0 1.52 1.084 2.558 2.761 2.885l1.47.284c.816.156 1.277.61 1.277 1.193 0 .71-.61 1.236-1.708 1.236-1.484 0-2.212-.895-2.3-1.89l-1.901.484c.163 1.435 1.395 3.154 4.186 3.154 2.45 0 3.801-1.563 3.801-3.112 0-1.42-1.024-2.614-2.94-2.97l-1.47-.27c-.771-.141-1.142-.582-1.142-1.136 0-.668.653-1.279 1.648-1.279 1.336 0 1.81.867 1.915 1.421z"/><path fill="url(#d)" d="M2.809 5.663a2.89 2.89 0 0 1 .943-1.038L10.375 0 3.589 11.222s-.593-1.002-.824-1.51a4.8 4.8 0 0 1 .044-4.05m-2.733 7.74a7.551 7.551 0 0 0 2.964 5.489L10.366 24s-4.583-6.606-8.45-13.178A6.639 6.639 0 0 1 1.14 8.58a3.587 3.587 0 0 1 0-1.076c-.1.187-.297.57-.297.57a8.702 8.702 0 0 0-.791 2.534 15.5 15.5 0 0 0 .024 2.796m18.677.89c-.237-.507-.824-1.509-.824-1.509L11.155 24l6.623-4.622a2.89 2.89 0 0 0 .943-1.038 4.8 4.8 0 0 0 .044-4.05zm2.69-3.694a7.552 7.552 0 0 0-2.966-5.488L11.165 0s4.58 6.606 8.449 13.179c.39.694.652 1.453.774 2.24.054.358.054.72 0 1.077.1-.187.296-.57.296-.57.392-.799.66-1.654.792-2.534.077-.93.07-1.866-.021-2.796z"/><defs><linearGradient id="a" x1="35.311" x2="22.209" y1="26.844" y2="-24.097" gradientUnits="userSpaceOnUse"><stop stop-color="#44BCF0"/><stop offset=".379" stop-color="#7298F8"/><stop offset="1" stop-color="#A099FF"/></linearGradient><linearGradient id="b" x1="35.311" x2="22.209" y1="26.844" y2="-24.097" gradientUnits="userSpaceOnUse"><stop stop-color="#44BCF0"/><stop offset=".379" stop-color="#7298F8"/><stop offset="1" stop-color="#A099FF"/></linearGradient><linearGradient id="c" x1="35.311" x2="22.209" y1="26.844" y2="-24.097" gradientUnits="userSpaceOnUse"><stop stop-color="#44BCF0"/><stop offset=".379" stop-color="#7298F8"/><stop offset="1" stop-color="#A099FF"/></linearGradient><linearGradient id="d" x1="35.311" x2="22.209" y1="26.844" y2="-24.097" gradientUnits="userSpaceOnUse"><stop stop-color="#44BCF0"/><stop offset=".379" stop-color="#7298F8"/><stop offset="1" stop-color="#A099FF"/></linearGradient></defs></svg>
